X: 581
T: The Galway Hornpipe
B: good tune book
B: tunes
M:4/4
R: hornpipe
Q: 1/4=100
K:Dmajor
V:1 
|:AF|"D" {A}D2 .FA dAFD|"A" E{D}E{F}EF "G" G2 FE|"D" {A}D2 FA d2 .df|"G" edcB "A" (3(.A.B.A) (3(.G.F.E)|
 "D" {A}D2 (3.F.G.A dAFD|"A" E{D}E{F}EF "G" G2 (3.E.F.G|"A" AdcB AGFE|"D" {A}.D2 .F2 .D2:|
 |:de|"D" fefg fedc|"G" B^ABc .B2 (3.B.c.d|"E7" e^def e=dcB|"A" (3.A.B.A ^G>B A2 (3.A.B.c|
 "D" dcde fdAF|"G" G{A}G{F}GA B.dcB|"A" AdcB (3.A.B.A (3.G.F.E|"D" {A}.D2 .F2 .D2:|
% abcbook-tune_id 63dce3ca3f0d7a5d40027b9d
% abcbook-tune_composer_id 
% abcbook-link-0 https://www.youtube.com/watch?v=aAUCn0bPfUc
% abcbook-boost 0
% abcbook-difficulty 0
% abcbook-tags good tune book
% abcbook-tablature 
% abcbook-transpose 
% abcbook-tuning 
% abcbook-lastupdated 1675480467888
% abcbook-soundfonts 
% abcbook-repeats 1


